X:51
T: The Job of Journeywork
M:4/4
R:
F:http://blackrosetheband.googlepages.com/ABCTUNES.ABC May 2009
K:D
fe| "D"dcAG FGAB | "C"=cABG "A"A2 fe | "D"d2 cA "G"BGAF | "Em"GBAF "Bm"DEFG |
 "F#m"A3 F "A"GFEF | "Em"D2 DE "D"F2 "G"G2 | "A"A2 d2 cdef | "D"d2 d3/2c1/2 d2 :|
|:de | "D"f2 ef gfef | dcAG "A"A2 de | "D"f2 ef "A"gfef | "D"d2 d3/2c1/2 d2 cd |
 "A"eaaf g2 fe | "D"dcde f2 ed | dcAG FGAB | "C"=cABG "A"A2 fe |"D"d2 cA "G"BGAF |
"Em"(3GAB AF "Bm"DEFG | "F#m"ABAF "A"GFEF | "Em"D2 DE "D"(3FEF "G"(3GFG | "A"A2 d2 cdef | "D"d2 d3/2c1/2 d2:|
